public/logos/PZ.svg

<?xml version="1.0" encoding="UTF-8"?>
<svg xmlns="http://www.w3.org/2000/svg" xmlns:xlink="http://www.w3.org/1999/xlink" width="176pt" height="49.22pt" viewBox="0 0 176 49.22" version="1.1">
<defs>
<clipPath id="clip1">
  <path d="M 92 0 L 171 0 L 171 49.21875 L 92 49.21875 Z M 92 0 "/>
</clipPath>
<clipPath id="clip2">
  <path d="M 0 0 L 61 0 L 61 49.21875 L 0 49.21875 Z M 0 0 "/>
</clipPath>
<clipPath id="clip3">
  <path d="M 30 0 L 100 0 L 100 49.21875 L 30 49.21875 Z M 30 0 "/>
</clipPath>
</defs>
<g id="surface1">
<g clip-path="url(#clip1)" clip-rule="nonzero">
<path style=" stroke:none;fill-rule:nonzero;fill:rgb(75.436401%,12.779236%,14.256287%);fill-opacity:1;" d="M 149.96875 0.113281 L 170.34375 0.113281 L 157.871094 49.21875 L 141.277344 49.21875 L 147.871094 23.792969 L 132.339844 49.21875 L 118.542969 49.21875 L 116.066406 23.808594 L 109.628906 49.21875 L 92.59375 49.21875 L 103.324219 7.246094 C 104.363281 3.140625 108.050781 0.125 112.46875 0.113281 L 129.558594 0.113281 L 131.601562 21.609375 C 131.601562 21.609375 139.820312 6.980469 140.933594 5.21875 C 142.574219 2.652344 145.25 0.113281 149.96875 0.113281 "/>
</g>
<g clip-path="url(#clip2)" clip-rule="nonzero">
<path style=" stroke:none;fill-rule:nonzero;fill:rgb(75.436401%,12.779236%,14.256287%);fill-opacity:1;" d="M 11.378906 0.125 C 6.070312 0.125 3.351562 2.808594 2.113281 7.246094 L 0 14.960938 L 16.875 14.960938 L 8.183594 49.21875 L 25.1875 49.21875 L 34.054688 14.960938 L 49.375 14.960938 L 60.042969 0.125 "/>
</g>
<g clip-path="url(#clip3)" clip-rule="nonzero">
<path style=" stroke:none;fill-rule:nonzero;fill:rgb(75.436401%,12.779236%,14.256287%);fill-opacity:1;" d="M 71.789062 18.941406 C 74.140625 15.957031 74.609375 14.867188 77.6875 14.867188 L 78.550781 14.882812 L 69.871094 49.21875 L 86.804688 49.21875 L 99.375 0.0273438 L 79.894531 0.00390625 C 70.746094 0.00390625 65.554688 1.992188 61.65625 7.25 L 30.941406 49.207031 L 50.191406 49.207031 "/>
</g>
<path style=" stroke:none;fill-rule:nonzero;fill:rgb(13.092041%,29.457092%,52.885437%);fill-opacity:1;" d="M 134.707031 15.3125 C 114.328125 16.945312 92.34375 22.691406 78.066406 37.152344 C 34.695312 18.6875 4.039062 28.488281 4.039062 28.488281 C 4.039062 28.488281 23.449219 17.359375 68.382812 28.296875 C 122.6875 3.101562 170.308594 14.382812 176 16.359375 C 167.898438 15.097656 150.882812 14.019531 134.707031 15.3125 "/>
</g>
</svg>

<svg xmlns="http://www.w3.org/2000/svg" width="176pt" height="65.627" viewBox="0 0 176 49.22"><defs><clipPath id="a"><path d="M92 0h79v49.219H92Zm0 0"/></clipPath><clipPath id="b"><path d="M0 0h61v49.219H0Zm0 0"/></clipPath><clipPath id="c"><path d="M30 0h70v49.219H30Zm0 0"/></clipPath></defs><g clip-path="url(#a)"><path d="M149.969.113h20.375L157.87 49.22h-16.594l6.594-25.426-15.531 25.426h-13.797l-2.477-25.41-6.437 25.41H92.594l10.73-41.973A9.444 9.444 0 0 1 112.47.113h17.09l2.043 21.496s8.218-14.629 9.332-16.39c1.64-2.567 4.316-5.106 9.035-5.106" style="stroke:none;fill-rule:nonzero;fill:#c02124;fill-opacity:1"/></g><g clip-path="url(#b)"><path d="M11.379.125c-5.309 0-8.027 2.684-9.266 7.121L0 14.961h16.875L8.184 49.219h17.004l8.867-34.258h15.32L60.043.125" style="stroke:none;fill-rule:nonzero;fill:#c02124;fill-opacity:1"/></g><g clip-path="url(#c)"><path d="M71.79 18.941c2.35-2.984 2.82-4.074 5.897-4.074l.864.016-8.68 34.336h16.934L99.375.027 79.895.004c-9.149 0-14.34 1.988-18.239 7.246L30.941 49.207h19.25" style="stroke:none;fill-rule:nonzero;fill:#c02124;fill-opacity:1"/></g><path d="M134.707 15.313c-20.379 1.632-42.363 7.378-56.64 21.84-43.372-18.465-74.028-8.665-74.028-8.665s19.41-11.129 64.344-.191C122.688 3.102 170.309 14.383 176 16.359c-8.102-1.261-25.117-2.34-41.293-1.047" style="stroke:none;fill-rule:nonzero;fill:#214b87;fill-opacity:1"/></svg>
